X: 6
T: To the Shores of Eire
H: 8/23/04
M: 4/4
L: 1/8
R: Air
K: Amin
E2 e2 BcdB | cBAc BEEE | E2 e2 BcdB | cBA^G A2 =GF |
E2 e2 BcdB | cBAc BEEE | E2 e2 BcdB | cBA^G A4 ||
A2 AB c2 A2 | B2 Bc d2 B2 | c2 de f2 e2 | d2 c2 B4 |
A2 AB c2 A2 | B2 Bc d2 B2 | c2 de f2 e2 | d2 ^G2 A4 |]
